X:30
T:Unknown Glasgow Jig 2
Z:robin.beech@mcgill.ca
S:Padraig O'Neill, Victoria Bar, Glasgow
R:jig
M:6/8
L:1/8
K:Em
EBB EBB | FAd fga | bge a2g | fdB AFD | EBB EBB | FAd fga |
bge fdB |1 AFD E2D :|2 AFD E3 |: GBd cAF | GBd ega |
bge a2g | fdB AFD | GBd cAF | GBd ega | bge fdB | AFD E3 :|
